icons/svg/tooltip-edit.svg

﻿<?xml version="1.0" encoding="utf-8"?>
<!DOCTYPE svg PUBLIC "-//W3C//DTD SVG 1.1//EN" "http://www.w3.org/Graphics/SVG/1.1/DTD/svg11.dtd">
<svg xmlns="http://www.w3.org/2000/svg" xmlns:xlink="http://www.w3.org/1999/xlink" version="1.1" baseProfile="full" width="24" height="24" viewBox="0 0 24.00 24.00" enable-background="new 0 0 24.00 24.00" xml:space="preserve">
	<path fill="#000000" fill-opacity="1" stroke-width="0.2" stroke-linejoin="round" d="M 4,2L 20,2C 21.1046,2 22,2.89543 22,4L 22,16C 22,17.1046 21.1046,18 20,18L 16,18L 12,22L 8,18L 4,18C 2.89543,18 2,17.1046 2,16L 2,4C 2,2.89543 2.89543,2 4,2 Z M 18,14L 18,12L 12.5,12L 10.5,14L 18,14 Z M 5.99999,14L 8.47501,14L 15.353,7.12103C 15.549,6.92601 15.549,6.60901 15.353,6.41402L 13.586,4.64602C 13.39,4.45103 13.074,4.45103 12.878,4.64602L 5.99999,11.525L 5.99999,14 Z "/>
</svg>

<svg xmlns="http://www.w3.org/2000/svg" version="1.1" baseProfile="full" width="24" height="24" viewBox="0 0 24.00 24.00" xml:space="preserve"><path fill="#000" fill-opacity="1" stroke-width=".2" stroke-linejoin="round" d="M4 2h16c1.105 0 2 .895 2 2v12c0 1.105-.895 2-2 2h-4l-4 4-4-4H4c-1.105 0-2-.895-2-2V4c0-1.105.895-2 2-2zm14 12v-2h-5.5l-2 2H18zM6 14h2.475l6.878-6.88c.196-.194.196-.51 0-.706l-1.767-1.768c-.196-.195-.512-.195-.708 0L6 11.526V14z"/></svg>
